assets/luts/lofi_cinematic.cube
TITLE "Lofi_Cozy_Cinematic"
LUT_3D_SIZE 5
0.000000 0.000000 0.000000
0.221875 0.000000 0.000000
0.512571 0.006857 0.000000
0.808179 0.016393 0.000000
1.000000 0.024000 0.000000
0.000000 0.221875 0.000000
0.221875 0.221875 0.000000
0.512571 0.228732 0.000000
0.808179 0.238268 0.000000
1.000000 0.245875 0.000000
0.012571 0.506857 0.000000
0.234446 0.506857 0.000000
0.512571 0.506857 0.000000
0.808179 0.516393 0.000000
1.000000 0.524000 0.000000
0.030054 0.794518 0.000000
0.251929 0.794518 0.000000
0.530054 0.794518 0.000000
0.808179 0.794518 0.000000
1.000000 0.802125 0.000000
0.044000 1.000000 0.000000
0.265875 1.000000 0.000000
0.544000 1.000000 0.000000
0.822125 1.000000 0.000000
1.000000 1.000000 0.000000
0.000000 0.000000 0.221875
0.221875 0.000000 0.221875
0.512571 0.006857 0.217304
0.808179 0.016393 0.210946
1.000000 0.024000 0.205875
0.000000 0.221875 0.221875
0.221875 0.221875 0.221875
0.512571 0.206482 0.195054
0.808179 0.193768 0.166446
1.000000 0.183625 0.143625
0.012571 0.506857 0.217304
0.212196 0.506857 0.195054
0.512571 0.506857 0.195054
0.808179 0.494143 0.166446
1.000000 0.484000 0.143625
0.030054 0.794518 0.210946
0.207429 0.794518 0.166446
0.507804 0.794518 0.166446
0.808179 0.794518 0.166446
1.000000 0.784375 0.143625
0.044000 1.000000 0.205875
0.203625 1.000000 0.143625
0.504000 1.000000 0.143625
0.804375 1.000000 0.143625
1.000000 1.000000 0.143625
0.012571 0.006857 0.495429
0.234446 0.006857 0.495429
0.512571 0.006857 0.495429
0.808179 0.016393 0.489071
1.000000 0.024000 0.484000
0.012571 0.228732 0.495429
0.212196 0.206482 0.495429
0.512571 0.206482 0.495429
0.808179 0.193768 0.466821
1.000000 0.183625 0.444000
0.012571 0.506857 0.495429
0.212196 0.506857 0.495429
0.512571 0.506857 0.495429
0.808179 0.494143 0.466821
1.000000 0.484000 0.444000
0.030054 0.794518 0.489071
0.207429 0.794518 0.466821
0.507804 0.794518 0.466821
0.808179 0.794518 0.466821
1.000000 0.784375 0.444000
0.044000 1.000000 0.484000
0.203625 1.000000 0.444000
0.504000 1.000000 0.444000
0.804375 1.000000 0.444000
1.000000 1.000000 0.444000
0.030054 0.016393 0.767196
0.251929 0.016393 0.767196
0.530054 0.016393 0.767196
0.808179 0.016393 0.767196
1.000000 0.024000 0.762125
0.030054 0.238268 0.767196
0.207429 0.193768 0.767196
0.507804 0.193768 0.767196
0.808179 0.193768 0.767196
1.000000 0.183625 0.744375
0.030054 0.516393 0.767196
0.207429 0.494143 0.767196
0.507804 0.494143 0.767196
0.808179 0.494143 0.767196
1.000000 0.484000 0.744375
0.030054 0.794518 0.767196
0.207429 0.794518 0.767196
0.507804 0.794518 0.767196
0.808179 0.794518 0.767196
1.000000 0.784375 0.744375
0.044000 1.000000 0.762125
0.203625 1.000000 0.744375
0.504000 1.000000 0.744375
0.804375 1.000000 0.744375
1.000000 1.000000 0.744375
0.044000 0.024000 0.984000
0.265875 0.024000 0.984000
0.544000 0.024000 0.984000
0.822125 0.024000 0.984000
1.000000 0.024000 0.984000
0.044000 0.245875 0.984000
0.203625 0.183625 0.984000
0.504000 0.183625 0.984000
0.804375 0.183625 0.984000
1.000000 0.183625 0.984000
0.044000 0.524000 0.984000
0.203625 0.484000 0.984000
0.504000 0.484000 0.984000
0.804375 0.484000 0.984000
1.000000 0.484000 0.984000
0.044000 0.802125 0.984000
0.203625 0.784375 0.984000
0.504000 0.784375 0.984000
0.804375 0.784375 0.984000
1.000000 0.784375 0.984000
0.044000 1.000000 0.984000
0.203625 1.000000 0.984000
0.504000 1.000000 0.984000
0.804375 1.000000 0.984000
1.000000 1.000000 0.984000
