assets/luts/lofi_cinematic.cube
TITLE "Lofi_Cozy_Cinematic"
LUT_3D_SIZE 9
0.000000 0.000000 0.000000
0.100391 0.000000 0.000000
0.221875 0.000000 0.000000
0.361031 0.001969 0.000000
0.512571 0.006857 0.000000
0.664112 0.011746 0.000000
0.808179 0.016393 0.000000
0.937299 0.020558 0.000000
1.000000 0.024000 0.000000
0.000000 0.100391 0.000000
0.100391 0.100391 0.000000
0.221875 0.100391 0.000000
0.361031 0.102359 0.000000
0.512571 0.107248 0.000000
0.664112 0.112136 0.000000
0.808179 0.116783 0.000000
0.937299 0.120949 0.000000
1.000000 0.124391 0.000000
0.000000 0.221875 0.000000
0.100391 0.221875 0.000000
0.221875 0.221875 0.000000
0.361031 0.223844 0.000000
0.512571 0.228732 0.000000
0.664112 0.233621 0.000000
0.808179 0.238268 0.000000
0.937299 0.242433 0.000000
1.000000 0.245875 0.000000
0.003609 0.359391 0.000000
0.104000 0.359391 0.000000
0.225484 0.359391 0.000000
0.361031 0.359391 0.000000
0.512571 0.364279 0.000000
0.664112 0.369167 0.000000
0.808179 0.373815 0.000000
0.937299 0.377980 0.000000
1.000000 0.381422 0.000000
0.012571 0.506857 0.000000
0.112962 0.506857 0.000000
0.234446 0.506857 0.000000
0.369993 0.506857 0.000000
0.512571 0.506857 0.000000
0.664112 0.511746 0.000000
0.808179 0.516393 0.000000
0.937299 0.520558 0.000000
1.000000 0.524000 0.000000
0.021533 0.654324 0.000000
0.121924 0.654324 0.000000
0.243408 0.654324 0.000000
0.378955 0.654324 0.000000
0.521533 0.654324 0.000000
0.664112 0.654324 0.000000
0.808179 0.658971 0.000000
0.937299 0.663136 0.000000
1.000000 0.666578 0.000000
0.030054 0.794518 0.000000
0.130444 0.794518 0.000000
0.251929 0.794518 0.000000
0.387475 0.794518 0.000000
0.530054 0.794518 0.000000
0.672632 0.794518 0.000000
0.808179 0.794518 0.000000
0.937299 0.798683 0.000000
1.000000 0.802125 0.000000
0.037690 0.920167 0.000000
0.138080 0.920167 0.000000
0.259565 0.920167 0.000000
0.395112 0.920167 0.000000
0.537690 0.920167 0.000000
0.680268 0.920167 0.000000
0.815815 0.920167 0.000000
0.937299 0.920167 0.000000
1.000000 0.923609 0.000000
0.044000 1.000000 0.000000
0.144391 1.000000 0.000000
0.265875 1.000000 0.000000
0.401422 1.000000 0.000000
0.544000 1.000000 0.000000
0.686578 1.000000 0.000000
0.822125 1.000000 0.000000
0.943609 1.000000 0.000000
1.000000 1.000000 0.000000
0.000000 0.000000 0.100391
0.100391 0.000000 0.100391
0.221875 0.000000 0.100391
0.361031 0.001969 0.099078
0.512571 0.006857 0.095819
0.664112 0.011746 0.092560
0.808179 0.016393 0.089462
0.937299 0.020558 0.086685
1.000000 0.024000 0.084391
0.000000 0.100391 0.100391
0.100391 0.100391 0.100391
0.221875 0.090672 0.090672
0.361031 0.081797 0.078516
0.512571 0.075279 0.063850
0.664112 0.068761 0.049185
0.808179 0.062565 0.035243
0.937299 0.057011 0.022748
1.000000 0.052422 0.012422
0.000000 0.221875 0.100391
0.090672 0.221875 0.090672
0.221875 0.221875 0.090672
0.361031 0.213000 0.078516
0.512571 0.206482 0.063850
0.664112 0.199964 0.049185
0.808179 0.193768 0.035243
0.937299 0.188214 0.022748
1.000000 0.183625 0.012422
0.003609 0.359391 0.099078
0.083437 0.359391 0.078516
0.214641 0.359391 0.078516
0.361031 0.359391 0.078516
0.512571 0.352873 0.063850
0.664112 0.346355 0.049185
0.808179 0.340158 0.035243
0.937299 0.334605 0.022748
1.000000 0.330016 0.012422
0.012571 0.506857 0.095819
0.080993 0.506857 0.063850
0.212196 0.506857 0.063850
0.358587 0.506857 0.063850
0.512571 0.506857 0.063850
0.664112 0.500339 0.049185
0.808179 0.494143 0.035243
0.937299 0.488589 0.022748
1.000000 0.484000 0.012422
0.021533 0.654324 0.092560
0.078549 0.654324 0.049185
0.209752 0.654324 0.049185
0.356143 0.654324 0.049185
0.510127 0.654324 0.049185
0.664112 0.654324 0.049185
0.808179 0.648127 0.035243
0.937299 0.642574 0.022748
1.000000 0.637984 0.012422
0.030054 0.794518 0.089462
0.076225 0.794518 0.035243
0.207429 0.794518 0.035243
0.353819 0.794518 0.035243
0.507804 0.794518 0.035243
0.661788 0.794518 0.035243
0.808179 0.794518 0.035243
0.937299 0.788964 0.022748
1.000000 0.784375 0.012422
0.037690 0.920167 0.086685
0.074143 0.920167 0.022748
0.205346 0.920167 0.022748
0.351737 0.920167 0.022748
0.505721 0.920167 0.022748
0.659705 0.920167 0.022748
0.806096 0.920167 0.022748
0.937299 0.920167 0.022748
1.000000 0.915578 0.012422
0.044000 1.000000 0.084391
0.072422 1.000000 0.012422
0.203625 1.000000 0.012422
0.350016 1.000000 0.012422
0.504000 1.000000 0.012422
0.657984 1.000000 0.012422
0.804375 1.000000 0.012422
0.935578 1.000000 0.012422
1.000000 1.000000 0.012422
0.000000 0.000000 0.221875
0.100391 0.000000 0.221875
0.221875 0.000000 0.221875
0.361031 0.001969 0.220562
0.512571 0.006857 0.217304
0.664112 0.011746 0.214045
0.808179 0.016393 0.210946
0.937299 0.020558 0.208170
1.000000 0.024000 0.205875
0.000000 0.100391 0.221875
0.090672 0.090672 0.221875
0.221875 0.090672 0.221875
0.361031 0.081797 0.209719
0.512571 0.075279 0.195054
0.664112 0.068761 0.180388
0.808179 0.062565 0.166446
0.937299 0.057011 0.153951
1.000000 0.052422 0.143625
0.000000 0.221875 0.221875
0.090672 0.221875 0.221875
0.221875 0.221875 0.221875
0.361031 0.213000 0.209719
0.512571 0.206482 0.195054
0.664112 0.199964 0.180388
0.808179 0.193768 0.166446
0.937299 0.188214 0.153951
1.000000 0.183625 0.143625
0.003609 0.359391 0.220562
0.083437 0.359391 0.209719
0.214641 0.359391 0.209719
0.361031 0.359391 0.209719
0.512571 0.352873 0.195054
0.664112 0.346355 0.180388
0.808179 0.340158 0.166446
0.937299 0.334605 0.153951
1.000000 0.330016 0.143625
0.012571 0.506857 0.217304
0.080993 0.506857 0.195054
0.212196 0.506857 0.195054
0.358587 0.506857 0.195054
0.512571 0.506857 0.195054
0.664112 0.500339 0.180388
0.808179 0.494143 0.166446
0.937299 0.488589 0.153951
1.000000 0.484000 0.143625
0.021533 0.654324 0.214045
0.078549 0.654324 0.180388
0.209752 0.654324 0.180388
0.356143 0.654324 0.180388
0.510127 0.654324 0.180388
0.664112 0.654324 0.180388
0.808179 0.648127 0.166446
0.937299 0.642574 0.153951
1.000000 0.637984 0.143625
0.030054 0.794518 0.210946
0.076225 0.794518 0.166446
0.207429 0.794518 0.166446
0.353819 0.794518 0.166446
0.507804 0.794518 0.166446
0.661788 0.794518 0.166446
0.808179 0.794518 0.166446
0.937299 0.788964 0.153951
1.000000 0.784375 0.143625
0.037690 0.920167 0.208170
0.074143 0.920167 0.153951
0.205346 0.920167 0.153951
0.351737 0.920167 0.153951
0.505721 0.920167 0.153951
0.659705 0.920167 0.153951
0.806096 0.920167 0.153951
0.937299 0.920167 0.153951
1.000000 0.915578 0.143625
0.044000 1.000000 0.205875
0.072422 1.000000 0.143625
0.203625 1.000000 0.143625
0.350016 1.000000 0.143625
0.504000 1.000000 0.143625
0.657984 1.000000 0.143625
0.804375 1.000000 0.143625
0.935578 1.000000 0.143625
1.000000 1.000000 0.143625
0.003609 0.001969 0.356109
0.104000 0.001969 0.356109
0.225484 0.001969 0.356109
0.361031 0.001969 0.356109
0.512571 0.006857 0.352850
0.664112 0.011746 0.349592
0.808179 0.016393 0.346493
0.937299 0.020558 0.343717
1.000000 0.024000 0.341422
0.003609 0.102359 0.356109
0.083437 0.081797 0.356109
0.214641 0.081797 0.356109
0.361031 0.081797 0.356109
0.512571 0.075279 0.341444
0.664112 0.068761 0.326779
0.808179 0.062565 0.312837
0.937299 0.057011 0.300342
1.000000 0.052422 0.290016
0.003609 0.223844 0.356109
0.083437 0.213000 0.356109
0.214641 0.213000 0.356109
0.361031 0.213000 0.356109
0.512571 0.206482 0.341444
0.664112 0.199964 0.326779
0.808179 0.193768 0.312837
0.937299 0.188214 0.300342
1.000000 0.183625 0.290016
0.003609 0.359391 0.356109
0.083437 0.359391 0.356109
0.214641 0.359391 0.356109
0.361031 0.359391 0.356109
0.512571 0.352873 0.341444
0.664112 0.346355 0.326779
0.808179 0.340158 0.312837
0.937299 0.334605 0.300342
1.000000 0.330016 0.290016
0.012571 0.506857 0.352850
0.080993 0.506857 0.341444
0.212196 0.506857 0.341444
0.358587 0.506857 0.341444
0.512571 0.506857 0.341444
0.664112 0.500339 0.326779
0.808179 0.494143 0.312837
0.937299 0.488589 0.300342
1.000000 0.484000 0.290016
0.021533 0.654324 0.349592
0.078549 0.654324 0.326779
0.209752 0.654324 0.326779
0.356143 0.654324 0.326779
0.510127 0.654324 0.326779
0.664112 0.654324 0.326779
0.808179 0.648127 0.312837
0.937299 0.642574 0.300342
1.000000 0.637984 0.290016
0.030054 0.794518 0.346493
0.076225 0.794518 0.312837
0.207429 0.794518 0.312837
0.353819 0.794518 0.312837
0.507804 0.794518 0.312837
0.661788 0.794518 0.312837
0.808179 0.794518 0.312837
0.937299 0.788964 0.300342
1.000000 0.784375 0.290016
0.037690 0.920167 0.343717
0.074143 0.920167 0.300342
0.205346 0.920167 0.300342
0.351737 0.920167 0.300342
0.505721 0.920167 0.300342
0.659705 0.920167 0.300342
0.806096 0.920167 0.300342
0.937299 0.920167 0.300342
1.000000 0.915578 0.290016
0.044000 1.000000 0.341422
0.072422 1.000000 0.290016
0.203625 1.000000 0.290016
0.350016 1.000000 0.290016
0.504000 1.000000 0.290016
0.657984 1.000000 0.290016
0.804375 1.000000 0.290016
0.935578 1.000000 0.290016
1.000000 1.000000 0.290016
0.012571 0.006857 0.495429
0.112962 0.006857 0.495429
0.234446 0.006857 0.495429
0.369993 0.006857 0.495429
0.512571 0.006857 0.495429
0.664112 0.011746 0.492170
0.808179 0.016393 0.489071
0.937299 0.020558 0.486295
1.000000 0.024000 0.484000
0.012571 0.107248 0.495429
0.080993 0.075279 0.495429
0.212196 0.075279 0.495429
0.358587 0.075279 0.495429
0.512571 0.075279 0.495429
0.664112 0.068761 0.480763
0.808179 0.062565 0.466821
0.937299 0.057011 0.454326
1.000000 0.052422 0.444000
0.012571 0.228732 0.495429
0.080993 0.206482 0.495429
0.212196 0.206482 0.495429
0.358587 0.206482 0.495429
0.512571 0.206482 0.495429
0.664112 0.199964 0.480763
0.808179 0.193768 0.466821
0.937299 0.188214 0.454326
1.000000 0.183625 0.444000
0.012571 0.364279 0.495429
0.080993 0.352873 0.495429
0.212196 0.352873 0.495429
0.358587 0.352873 0.495429
0.512571 0.352873 0.495429
0.664112 0.346355 0.480763
0.808179 0.340158 0.466821
0.937299 0.334605 0.454326
1.000000 0.330016 0.444000
0.012571 0.506857 0.495429
0.080993 0.506857 0.495429
0.212196 0.506857 0.495429
0.358587 0.506857 0.495429
0.512571 0.506857 0.495429
0.664112 0.500339 0.480763
0.808179 0.494143 0.466821
0.937299 0.488589 0.454326
1.000000 0.484000 0.444000
0.021533 0.654324 0.492170
0.078549 0.654324 0.480763
0.209752 0.654324 0.480763
0.356143 0.654324 0.480763
0.510127 0.654324 0.480763
0.664112 0.654324 0.480763
0.808179 0.648127 0.466821
0.937299 0.642574 0.454326
1.000000 0.637984 0.444000
0.030054 0.794518 0.489071
0.076225 0.794518 0.466821
0.207429 0.794518 0.466821
0.353819 0.794518 0.466821
0.507804 0.794518 0.466821
0.661788 0.794518 0.466821
0.808179 0.794518 0.466821
0.937299 0.788964 0.454326
1.000000 0.784375 0.444000
0.037690 0.920167 0.486295
0.074143 0.920167 0.454326
0.205346 0.920167 0.454326
0.351737 0.920167 0.454326
0.505721 0.920167 0.454326
0.659705 0.920167 0.454326
0.806096 0.920167 0.454326
0.937299 0.920167 0.454326
1.000000 0.915578 0.444000
0.044000 1.000000 0.484000
0.072422 1.000000 0.444000
0.203625 1.000000 0.444000
0.350016 1.000000 0.444000
0.504000 1.000000 0.444000
0.657984 1.000000 0.444000
0.804375 1.000000 0.444000
0.935578 1.000000 0.444000
1.000000 1.000000 0.444000
0.021533 0.011746 0.634748
0.121924 0.011746 0.634748
0.243408 0.011746 0.634748
0.378955 0.011746 0.634748
0.521533 0.011746 0.634748
0.664112 0.011746 0.634748
0.808179 0.016393 0.631650
0.937299 0.020558 0.628873
1.000000 0.024000 0.626578
0.021533 0.112136 0.634748
0.078549 0.068761 0.634748
0.209752 0.068761 0.634748
0.356143 0.068761 0.634748
0.510127 0.068761 0.634748
0.664112 0.068761 0.634748
0.808179 0.062565 0.620806
0.937299 0.057011 0.608310
1.000000 0.052422 0.597984
0.021533 0.233621 0.634748
0.078549 0.199964 0.634748
0.209752 0.199964 0.634748
0.356143 0.199964 0.634748
0.510127 0.199964 0.634748
0.664112 0.199964 0.634748
0.808179 0.193768 0.620806
0.937299 0.188214 0.608310
1.000000 0.183625 0.597984
0.021533 0.369167 0.634748
0.078549 0.346355 0.634748
0.209752 0.346355 0.634748
0.356143 0.346355 0.634748
0.510127 0.346355 0.634748
0.664112 0.346355 0.634748
0.808179 0.340158 0.620806
0.937299 0.334605 0.608310
1.000000 0.330016 0.597984
0.021533 0.511746 0.634748
0.078549 0.500339 0.634748
0.209752 0.500339 0.634748
0.356143 0.500339 0.634748
0.510127 0.500339 0.634748
0.664112 0.500339 0.634748
0.808179 0.494143 0.620806
0.937299 0.488589 0.608310
1.000000 0.484000 0.597984
0.021533 0.654324 0.634748
0.078549 0.654324 0.634748
0.209752 0.654324 0.634748
0.356143 0.654324 0.634748
0.510127 0.654324 0.634748
0.664112 0.654324 0.634748
0.808179 0.648127 0.620806
0.937299 0.642574 0.608310
1.000000 0.637984 0.597984
0.030054 0.794518 0.631650
0.076225 0.794518 0.620806
0.207429 0.794518 0.620806
0.353819 0.794518 0.620806
0.507804 0.794518 0.620806
0.661788 0.794518 0.620806
0.808179 0.794518 0.620806
0.937299 0.788964 0.608310
1.000000 0.784375 0.597984
0.037690 0.920167 0.628873
0.074143 0.920167 0.608310
0.205346 0.920167 0.608310
0.351737 0.920167 0.608310
0.505721 0.920167 0.608310
0.659705 0.920167 0.608310
0.806096 0.920167 0.608310
0.937299 0.920167 0.608310
1.000000 0.915578 0.597984
0.044000 1.000000 0.626578
0.072422 1.000000 0.597984
0.203625 1.000000 0.597984
0.350016 1.000000 0.597984
0.504000 1.000000 0.597984
0.657984 1.000000 0.597984
0.804375 1.000000 0.597984
0.935578 1.000000 0.597984
1.000000 1.000000 0.597984
0.030054 0.016393 0.767196
0.130444 0.016393 0.767196
0.251929 0.016393 0.767196
0.387475 0.016393 0.767196
0.530054 0.016393 0.767196
0.672632 0.016393 0.767196
0.808179 0.016393 0.767196
0.937299 0.020558 0.764420
1.000000 0.024000 0.762125
0.030054 0.116783 0.767196
0.076225 0.062565 0.767196
0.207429 0.062565 0.767196
0.353819 0.062565 0.767196
0.507804 0.062565 0.767196
0.661788 0.062565 0.767196
0.808179 0.062565 0.767196
0.937299 0.057011 0.754701
1.000000 0.052422 0.744375
0.030054 0.238268 0.767196
0.076225 0.193768 0.767196
0.207429 0.193768 0.767196
0.353819 0.193768 0.767196
0.507804 0.193768 0.767196
0.661788 0.193768 0.767196
0.808179 0.193768 0.767196
0.937299 0.188214 0.754701
1.000000 0.183625 0.744375
0.030054 0.373815 0.767196
0.076225 0.340158 0.767196
0.207429 0.340158 0.767196
0.353819 0.340158 0.767196
0.507804 0.340158 0.767196
0.661788 0.340158 0.767196
0.808179 0.340158 0.767196
0.937299 0.334605 0.754701
1.000000 0.330016 0.744375
0.030054 0.516393 0.767196
0.076225 0.494143 0.767196
0.207429 0.494143 0.767196
0.353819 0.494143 0.767196
0.507804 0.494143 0.767196
0.661788 0.494143 0.767196
0.808179 0.494143 0.767196
0.937299 0.488589 0.754701
1.000000 0.484000 0.744375
0.030054 0.658971 0.767196
0.076225 0.648127 0.767196
0.207429 0.648127 0.767196
0.353819 0.648127 0.767196
0.507804 0.648127 0.767196
0.661788 0.648127 0.767196
0.808179 0.648127 0.767196
0.937299 0.642574 0.754701
1.000000 0.637984 0.744375
0.030054 0.794518 0.767196
0.076225 0.794518 0.767196
0.207429 0.794518 0.767196
0.353819 0.794518 0.767196
0.507804 0.794518 0.767196
0.661788 0.794518 0.767196
0.808179 0.794518 0.767196
0.937299 0.788964 0.754701
1.000000 0.784375 0.744375
0.037690 0.920167 0.764420
0.074143 0.920167 0.754701
0.205346 0.920167 0.754701
0.351737 0.920167 0.754701
0.505721 0.920167 0.754701
0.659705 0.920167 0.754701
0.806096 0.920167 0.754701
0.937299 0.920167 0.754701
1.000000 0.915578 0.744375
0.044000 1.000000 0.762125
0.072422 1.000000 0.744375
0.203625 1.000000 0.744375
0.350016 1.000000 0.744375
0.504000 1.000000 0.744375
0.657984 1.000000 0.744375
0.804375 1.000000 0.744375
0.935578 1.000000 0.744375
1.000000 1.000000 0.744375
0.037690 0.020558 0.885904
0.138080 0.020558 0.885904
0.259565 0.020558 0.885904
0.395112 0.020558 0.885904
0.537690 0.020558 0.885904
0.680268 0.020558 0.885904
0.815815 0.020558 0.885904
0.937299 0.020558 0.885904
1.000000 0.024000 0.883609
0.037690 0.120949 0.885904
0.074143 0.057011 0.885904
0.205346 0.057011 0.885904
0.351737 0.057011 0.885904
0.505721 0.057011 0.885904
0.659705 0.057011 0.885904
0.806096 0.057011 0.885904
0.937299 0.057011 0.885904
1.000000 0.052422 0.875578
0.037690 0.242433 0.885904
0.074143 0.188214 0.885904
0.205346 0.188214 0.885904
0.351737 0.188214 0.885904
0.505721 0.188214 0.885904
0.659705 0.188214 0.885904
0.806096 0.188214 0.885904
0.937299 0.188214 0.885904
1.000000 0.183625 0.875578
0.037690 0.377980 0.885904
0.074143 0.334605 0.885904
0.205346 0.334605 0.885904
0.351737 0.334605 0.885904
0.505721 0.334605 0.885904
0.659705 0.334605 0.885904
0.806096 0.334605 0.885904
0.937299 0.334605 0.885904
1.000000 0.330016 0.875578
0.037690 0.520558 0.885904
0.074143 0.488589 0.885904
0.205346 0.488589 0.885904
0.351737 0.488589 0.885904
0.505721 0.488589 0.885904
0.659705 0.488589 0.885904
0.806096 0.488589 0.885904
0.937299 0.488589 0.885904
1.000000 0.484000 0.875578
0.037690 0.663136 0.885904
0.074143 0.642574 0.885904
0.205346 0.642574 0.885904
0.351737 0.642574 0.885904
0.505721 0.642574 0.885904
0.659705 0.642574 0.885904
0.806096 0.642574 0.885904
0.937299 0.642574 0.885904
1.000000 0.637984 0.875578
0.037690 0.798683 0.885904
0.074143 0.788964 0.885904
0.205346 0.788964 0.885904
0.351737 0.788964 0.885904
0.505721 0.788964 0.885904
0.659705 0.788964 0.885904
0.806096 0.788964 0.885904
0.937299 0.788964 0.885904
1.000000 0.784375 0.875578
0.037690 0.920167 0.885904
0.074143 0.920167 0.885904
0.205346 0.920167 0.885904
0.351737 0.920167 0.885904
0.505721 0.920167 0.885904
0.659705 0.920167 0.885904
0.806096 0.920167 0.885904
0.937299 0.920167 0.885904
1.000000 0.915578 0.875578
0.044000 1.000000 0.883609
0.072422 1.000000 0.875578
0.203625 1.000000 0.875578
0.350016 1.000000 0.875578
0.504000 1.000000 0.875578
0.657984 1.000000 0.875578
0.804375 1.000000 0.875578
0.935578 1.000000 0.875578
1.000000 1.000000 0.875578
0.044000 0.024000 0.984000
0.144391 0.024000 0.984000
0.265875 0.024000 0.984000
0.401422 0.024000 0.984000
0.544000 0.024000 0.984000
0.686578 0.024000 0.984000
0.822125 0.024000 0.984000
0.943609 0.024000 0.984000
1.000000 0.024000 0.984000
0.044000 0.124391 0.984000
0.072422 0.052422 0.984000
0.203625 0.052422 0.984000
0.350016 0.052422 0.984000
0.504000 0.052422 0.984000
0.657984 0.052422 0.984000
0.804375 0.052422 0.984000
0.935578 0.052422 0.984000
1.000000 0.052422 0.984000
0.044000 0.245875 0.984000
0.072422 0.183625 0.984000
0.203625 0.183625 0.984000
0.350016 0.183625 0.984000
0.504000 0.183625 0.984000
0.657984 0.183625 0.984000
0.804375 0.183625 0.984000
0.935578 0.183625 0.984000
1.000000 0.183625 0.984000
0.044000 0.381422 0.984000
0.072422 0.330016 0.984000
0.203625 0.330016 0.984000
0.350016 0.330016 0.984000
0.504000 0.330016 0.984000
0.657984 0.330016 0.984000
0.804375 0.330016 0.984000
0.935578 0.330016 0.984000
1.000000 0.330016 0.984000
0.044000 0.524000 0.984000
0.072422 0.484000 0.984000
0.203625 0.484000 0.984000
0.350016 0.484000 0.984000
0.504000 0.484000 0.984000
0.657984 0.484000 0.984000
0.804375 0.484000 0.984000
0.935578 0.484000 0.984000
1.000000 0.484000 0.984000
0.044000 0.666578 0.984000
0.072422 0.637984 0.984000
0.203625 0.637984 0.984000
0.350016 0.637984 0.984000
0.504000 0.637984 0.984000
0.657984 0.637984 0.984000
0.804375 0.637984 0.984000
0.935578 0.637984 0.984000
1.000000 0.637984 0.984000
0.044000 0.802125 0.984000
0.072422 0.784375 0.984000
0.203625 0.784375 0.984000
0.350016 0.784375 0.984000
0.504000 0.784375 0.984000
0.657984 0.784375 0.984000
0.804375 0.784375 0.984000
0.935578 0.784375 0.984000
1.000000 0.784375 0.984000
0.044000 0.923609 0.984000
0.072422 0.915578 0.984000
0.203625 0.915578 0.984000
0.350016 0.915578 0.984000
0.504000 0.915578 0.984000
0.657984 0.915578 0.984000
0.804375 0.915578 0.984000
0.935578 0.915578 0.984000
1.000000 0.915578 0.984000
0.044000 1.000000 0.984000
0.072422 1.000000 0.984000
0.203625 1.000000 0.984000
0.350016 1.000000 0.984000
0.504000 1.000000 0.984000
0.657984 1.000000 0.984000
0.804375 1.000000 0.984000
0.935578 1.000000 0.984000
1.000000 1.000000 0.984000
