assets/luts/lofi_cinematic.cube
TITLE "Lofi_Cozy_Cinematic"
LUT_3D_SIZE 33
0.000000 0.000000 0.000000
0.022736 0.000000 0.000000
0.047119 0.000000 0.000000
0.073041 0.000000 0.000000
0.100391 0.000000 0.000000
0.129059 0.000000 0.000000
0.158936 0.000000 0.000000
0.189911 0.000000 0.000000
0.221875 0.000000 0.000000
0.254718 0.000000 0.000000
0.288330 0.000000 0.000000
0.324022 0.000775 0.000000
0.361031 0.001969 0.000000
0.398508 0.003178 0.000000
0.436334 0.004398 0.000000
0.474394 0.005626 0.000000
0.512571 0.006857 0.000000
0.550748 0.008089 0.000000
0.588809 0.009316 0.000000
0.626635 0.010537 0.000000
0.664112 0.011746 0.000000
0.701121 0.012939 0.000000
0.737546 0.014114 0.000000
0.773271 0.015267 0.000000
0.808179 0.016393 0.000000
0.842152 0.017489 0.000000
0.875074 0.018551 0.000000
0.906829 0.019575 0.000000
0.937299 0.020558 0.000000
0.966368 0.021496 0.000000
0.993919 0.022384 0.000000
1.000000 0.023220 0.000000
1.000000 0.024000 0.000000
0.000000 0.022736 0.000000
0.022736 0.022736 0.000000
0.047119 0.022736 0.000000
0.073041 0.022736 0.000000
0.100391 0.022736 0.000000
0.129059 0.022736 0.000000
0.158936 0.022736 0.000000
0.189911 0.022736 0.000000
0.221875 0.022736 0.000000
0.254718 0.022736 0.000000
0.288330 0.022736 0.000000
0.324022 0.023510 0.000000
0.361031 0.024704 0.000000
0.398508 0.025913 0.000000
0.436334 0.027133 0.000000
0.474394 0.028361 0.000000
0.512571 0.029593 0.000000
0.550748 0.030824 0.000000
0.588809 0.032052 0.000000
0.626635 0.033272 0.000000
0.664112 0.034481 0.000000
0.701121 0.035675 0.000000
0.737546 0.036850 0.000000
0.773271 0.038002 0.000000
0.808179 0.039128 0.000000
0.842152 0.040224 0.000000
0.875074 0.041286 0.000000
0.906829 0.042311 0.000000
0.937299 0.043294 0.000000
0.966368 0.044231 0.000000
0.993919 0.045120 0.000000
1.000000 0.045956 0.000000
1.000000 0.046736 0.000000
0.000000 0.047119 0.000000
0.022736 0.047119 0.000000
0.047119 0.047119 0.000000
0.073041 0.047119 0.000000
0.100391 0.047119 0.000000
0.129059 0.047119 0.000000
0.158936 0.047119 0.000000
0.189911 0.047119 0.000000
0.221875 0.047119 0.000000
0.254718 0.047119 0.000000
0.288330 0.047119 0.000000
0.324022 0.047894 0.000000
0.361031 0.049088 0.000000
0.398508 0.050297 0.000000
0.436334 0.051517 0.000000
0.474394 0.052745 0.000000
0.512571 0.053976 0.000000
0.550748 0.055208 0.000000
0.588809 0.056436 0.000000
0.626635 0.057656 0.000000
0.664112 0.058865 0.000000
0.701121 0.060059 0.000000
0.737546 0.061234 0.000000
0.773271 0.062386 0.000000
0.808179 0.063512 0.000000
0.842152 0.064608 0.000000
0.875074 0.065670 0.000000
0.906829 0.066694 0.000000
0.937299 0.067677 0.000000
0.966368 0.068615 0.000000
0.993919 0.069504 0.000000
1.000000 0.070340 0.000000
1.000000 0.071119 0.000000
0.000000 0.073041 0.000000
0.022736 0.073041 0.000000
0.047119 0.073041 0.000000
0.073041 0.073041 0.000000
0.100391 0.073041 0.000000
0.129059 0.073041 0.000000
0.158936 0.073041 0.000000
0.189911 0.073041 0.000000
0.221875 0.073041 0.000000
0.254718 0.073041 0.000000
0.288330 0.073041 0.000000
0.324022 0.073816 0.000000
0.361031 0.075010 0.000000
0.398508 0.076218 0.000000
0.436334 0.077439 0.000000
0.474394 0.078666 0.000000
0.512571 0.079898 0.000000
0.550748 0.081129 0.000000
0.588809 0.082357 0.000000
0.626635 0.083577 0.000000
0.664112 0.084786 0.000000
0.701121 0.085980 0.000000
0.737546 0.087155 0.000000
0.773271 0.088308 0.000000
0.808179 0.089434 0.000000
0.842152 0.090530 0.000000
0.875074 0.091592 0.000000
0.906829 0.092616 0.000000
0.937299 0.093599 0.000000
0.966368 0.094537 0.000000
0.993919 0.095425 0.000000
1.000000 0.096261 0.000000
1.000000 0.097041 0.000000
0.000000 0.100391 0.000000
0.022736 0.100391 0.000000
0.047119 0.100391 0.000000
0.073041 0.100391 0.000000
0.100391 0.100391 0.000000
0.129059 0.100391 0.000000
0.158936 0.100391 0.000000
0.189911 0.100391 0.000000
0.221875 0.100391 0.000000
0.254718 0.100391 0.000000
0.288330 0.100391 0.000000
0.324022 0.101166 0.000000
0.361031 0.102359 0.000000
0.398508 0.103568 0.000000
0.436334 0.104789 0.000000
0.474394 0.106016 0.000000
0.512571 0.107248 0.000000
0.550748 0.108479 0.000000
0.588809 0.109707 0.000000
0.626635 0.110927 0.000000
0.664112 0.112136 0.000000
0.701121 0.113330 0.000000
0.737546 0.114505 0.000000
0.773271 0.115657 0.000000
0.808179 0.116783 0.000000
0.842152 0.117879 0.000000
0.875074 0.118941 0.000000
0.906829 0.119966 0.000000
0.937299 0.120949 0.000000
0.966368 0.121886 0.000000
0.993919 0.122775 0.000000
1.000000 0.123611 0.000000
1.000000 0.124391 0.000000
0.000000 0.129059 0.000000
0.022736 0.129059 0.000000
0.047119 0.129059 0.000000
0.073041 0.129059 0.000000
0.100391 0.129059 0.000000
0.129059 0.129059 0.000000
0.158936 0.129059 0.000000
0.189911 0.129059 0.000000
0.221875 0.129059 0.000000
0.254718 0.129059 0.000000
0.288330 0.129059 0.000000
0.324022 0.129834 0.000000
0.361031 0.131028 0.000000
0.398508 0.132237 0.000000
0.436334 0.133457 0.000000
0.474394 0.134684 0.000000
0.512571 0.135916 0.000000
0.550748 0.137147 0.000000
0.588809 0.138375 0.000000
0.626635 0.139595 0.000000
0.664112 0.140804 0.000000
0.701121 0.141998 0.000000
0.737546 0.143173 0.000000
0.773271 0.144326 0.000000
0.808179 0.145452 0.000000
0.842152 0.146548 0.000000
0.875074 0.147610 0.000000
0.906829 0.148634 0.000000
0.937299 0.149617 0.000000
0.966368 0.150555 0.000000
0.993919 0.151443 0.000000
1.000000 0.152279 0.000000
1.000000 0.153059 0.000000
0.000000 0.158936 0.000000
0.022736 0.158936 0.000000
0.047119 0.158936 0.000000
0.073041 0.158936 0.000000
0.100391 0.158936 0.000000
0.129059 0.158936 0.000000
0.158936 0.158936 0.000000
0.189911 0.158936 0.000000
0.221875 0.158936 0.000000
0.254718 0.158936 0.000000
0.288330 0.158936 0.000000
0.324022 0.159710 0.000000
0.361031 0.160904 0.000000
0.398508 0.162113 0.000000
0.436334 0.163333 0.000000
0.474394 0.164561 0.000000
0.512571 0.165793 0.000000
0.550748 0.167024 0.000000
0.588809 0.168252 0.000000
0.626635 0.169472 0.000000
0.664112 0.170681 0.000000
0.701121 0.171875 0.000000
0.737546 0.173050 0.000000
0.773271 0.174202 0.000000
0.808179 0.175328 0.000000
0.842152 0.176424 0.000000
0.875074 0.177486 0.000000
0.906829 0.178511 0.000000
0.937299 0.179494 0.000000
0.966368 0.180431 0.000000
0.993919 0.181320 0.000000
1.000000 0.182156 0.000000
1.000000 0.182936 0.000000
0.000000 0.189911 0.000000
0.022736 0.189911 0.000000
0.047119 0.189911 0.000000
0.073041 0.189911 0.000000
0.100391 0.189911 0.000000
0.129059 0.189911 0.000000
0.158936 0.189911 0.000000
0.189911 0.189911 0.000000
0.221875 0.189911 0.000000
0.254718 0.189911 0.000000
0.288330 0.189911 0.000000
0.324022 0.190686 0.000000
0.361031 0.191880 0.000000
0.398508 0.193089 0.000000
0.436334 0.194309 0.000000
0.474394 0.195537 0.000000
0.512571 0.196768 0.000000
0.550748 0.198000 0.000000
0.588809 0.199227 0.000000
0.626635 0.200448 0.000000
0.664112 0.201656 0.000000
0.701121 0.202850 0.000000
0.737546 0.204025 0.000000
0.773271 0.205178 0.000000
0.808179 0.206304 0.000000
0.842152 0.207400 0.000000
0.875074 0.208462 0.000000
0.906829 0.209486 0.000000
0.937299 0.210469 0.000000
0.966368 0.211407 0.000000
0.993919 0.212295 0.000000
1.000000 0.213131 0.000000
1.000000 0.213911 0.000000
0.000000 0.221875 0.000000
0.022736 0.221875 0.000000
0.047119 0.221875 0.000000
0.073041 0.221875 0.000000
0.100391 0.221875 0.000000
0.129059 0.221875 0.000000
0.158936 0.221875 0.000000
0.189911 0.221875 0.000000
0.221875 0.221875 0.000000
0.254718 0.221875 0.000000
0.288330 0.221875 0.000000
0.324022 0.222650 0.000000
0.361031 0.223844 0.000000
0.398508 0.225053 0.000000
0.436334 0.226273 0.000000
0.474394 0.227501 0.000000
0.512571 0.228732 0.000000
0.550748 0.229964 0.000000
0.588809 0.231191 0.000000
0.626635 0.232412 0.000000
0.664112 0.233621 0.000000
0.701121 0.234814 0.000000
0.737546 0.235989 0.000000
0.773271 0.237142 0.000000
0.808179 0.238268 0.000000
0.842152 0.239364 0.000000
0.875074 0.240426 0.000000
0.906829 0.241450 0.000000
0.937299 0.242433 0.000000
0.966368 0.243371 0.000000
0.993919 0.244259 0.000000
1.000000 0.245095 0.000000
1.000000 0.245875 0.000000
0.000000 0.254718 0.000000
0.022736 0.254718 0.000000
0.047119 0.254718 0.000000
0.073041 0.254718 0.000000
0.100391 0.254718 0.000000
0.129059 0.254718 0.000000
0.158936 0.254718 0.000000
0.189911 0.254718 0.000000
0.221875 0.254718 0.000000
0.254718 0.254718 0.000000
0.288330 0.254718 0.000000
0.324022 0.255493 0.000000
0.361031 0.256687 0.000000
0.398508 0.257896 0.000000
0.436334 0.259116 0.000000
0.474394 0.260344 0.000000
0.512571 0.261575 0.000000
0.550748 0.262807 0.000000
0.588809 0.264034 0.000000
0.626635 0.265255 0.000000
0.664112 0.266464 0.000000
0.701121 0.267657 0.000000
0.737546 0.268832 0.000000
0.773271 0.269985 0.000000
0.808179 0.271111 0.000000
0.842152 0.272207 0.000000
0.875074 0.273269 0.000000
0.906829 0.274293 0.000000
0.937299 0.275276 0.000000
0.966368 0.276214 0.000000
0.993919 0.277103 0.000000
1.000000 0.277939 0.000000
1.000000 0.278718 0.000000
0.000000 0.288330 0.000000
0.022736 0.288330 0.000000
0.047119 0.288330 0.000000
0.073041 0.288330 0.000000
0.100391 0.288330 0.000000
0.129059 0.288330 0.000000
0.158936 0.288330 0.000000
0.189911 0.288330 0.000000
0.221875 0.288330 0.000000
0.254718 0.288330 0.000000
0.288330 0.288330 0.000000
0.324022 0.289105 0.000000
0.361031 0.290299 0.000000
0.398508 0.291508 0.000000
0.436334 0.292728 0.000000
0.474394 0.293956 0.000000
0.512571 0.295187 0.000000
0.550748 0.296419 0.000000
0.588809 0.297646 0.000000
0.626635 0.298867 0.000000
0.664112 0.300076 0.000000
0.701121 0.301269 0.000000
0.737546 0.302444 0.000000
0.773271 0.303597 0.000000
0.808179 0.304723 0.000000
0.842152 0.305819 0.000000
0.875074 0.306881 0.000000
0.906829 0.307905 0.000000
0.937299 0.308888 0.000000
0.966368 0.309826 0.000000
0.993919 0.310715 0.000000
1.000000 0.311551 0.000000
1.000000 0.312330 0.000000
0.001421 0.323376 0.000000
0.024156 0.323376 0.000000
0.048540 0.323376 0.000000
0.074461 0.323376 0.000000
0.101811 0.323376 0.000000
0.130479 0.323376 0.000000
0.160356 0.323376 0.000000
0.191332 0.323376 0.000000
0.223296 0.323376 0.000000
0.256139 0.323376 0.000000
0.289751 0.323376 0.000000
0.324022 0.323376 0.000000
0.361031 0.324570 0.000000
0.398508 0.325779 0.000000
0.436334 0.326999 0.000000
0.474394 0.328227 0.000000
0.512571 0.329458 0.000000
0.550748 0.330690 0.000000
0.588809 0.331918 0.000000
0.626635 0.333138 0.000000
0.664112 0.334347 0.000000
0.701121 0.335541 0.000000
0.737546 0.336716 0.000000
0.773271 0.337868 0.000000
0.808179 0.338994 0.000000
0.842152 0.340090 0.000000
0.875074 0.341152 0.000000
0.906829 0.342176 0.000000
0.937299 0.343159 0.000000
0.966368 0.344097 0.000000
0.993919 0.344986 0.000000
1.000000 0.345822 0.000000
1.000000 0.346601 0.000000
0.003609 0.359391 0.000000
0.026345 0.359391 0.000000
0.050729 0.359391 0.000000
0.076650 0.359391 0.000000
0.104000 0.359391 0.000000
0.132668 0.359391 0.000000
0.162545 0.359391 0.000000
0.193520 0.359391 0.000000
0.225484 0.359391 0.000000
0.258327 0.359391 0.000000
0.291939 0.359391 0.000000
0.326211 0.359391 0.000000
0.361031 0.359391 0.000000
0.398508 0.360600 0.000000
0.436334 0.361820 0.000000
0.474394 0.363048 0.000000
0.512571 0.364279 0.000000
0.550748 0.365511 0.000000
0.588809 0.366738 0.000000
0.626635 0.367958 0.000000
0.664112 0.369167 0.000000
0.701121 0.370361 0.000000
0.737546 0.371536 0.000000
0.773271 0.372689 0.000000
0.808179 0.373815 0.000000
0.842152 0.374911 0.000000
0.875074 0.375973 0.000000
0.906829 0.376997 0.000000
0.937299 0.377980 0.000000
0.966368 0.378918 0.000000
0.993919 0.379806 0.000000
1.000000 0.380642 0.000000
1.000000 0.381422 0.000000
0.005826 0.395860 0.000000
0.028561 0.395860 0.000000
0.052945 0.395860 0.000000
0.078866 0.395860 0.000000
0.106216 0.395860 0.000000
0.134885 0.395860 0.000000
0.164761 0.395860 0.000000
0.195737 0.395860 0.000000
0.227701 0.395860 0.000000
0.260544 0.395860 0.000000
0.294156 0.395860 0.000000
0.328427 0.395860 0.000000
0.363248 0.395860 0.000000
0.398508 0.395860 0.000000
0.436334 0.397080 0.000000
0.474394 0.398308 0.000000
0.512571 0.399539 0.000000
0.550748 0.400771 0.000000
0.588809 0.401998 0.000000
0.626635 0.403219 0.000000
0.664112 0.404427 0.000000
0.701121 0.405621 0.000000
0.737546 0.406796 0.000000
0.773271 0.407949 0.000000
0.808179 0.409075 0.000000
0.842152 0.410171 0.000000
0.875074 0.411233 0.000000
0.906829 0.412257 0.000000
0.937299 0.413240 0.000000
0.966368 0.414178 0.000000
0.993919 0.415066 0.000000
1.000000 0.415902 0.000000
1.000000 0.416682 0.000000
0.008063 0.432669 0.000000
0.030798 0.432669 0.000000
0.055182 0.432669 0.000000
0.081104 0.432669 0.000000
0.108453 0.432669 0.000000
0.137122 0.432669 0.000000
0.166998 0.432669 0.000000
0.197974 0.432669 0.000000
0.229938 0.432669 0.000000
0.262781 0.432669 0.000000
0.296393 0.432669 0.000000
0.330664 0.432669 0.000000
0.365485 0.432669 0.000000
0.400745 0.432669 0.000000
0.436334 0.432669 0.000000
0.474394 0.433897 0.000000
0.512571 0.435129 0.000000
0.550748 0.436360 0.000000
0.588809 0.437588 0.000000
0.626635 0.438808 0.000000
0.664112 0.440017 0.000000
0.701121 0.441211 0.000000
0.737546 0.442386 0.000000
0.773271 0.443538 0.000000
0.808179 0.444664 0.000000
0.842152 0.445760 0.000000
0.875074 0.446822 0.000000
0.906829 0.447847 0.000000
0.937299 0.448830 0.000000
0.966368 0.449767 0.000000
0.993919 0.450656 0.000000
1.000000 0.451492 0.000000
1.000000 0.452271 0.000000
0.010314 0.469706 0.000000
0.033049 0.469706 0.000000
0.057433 0.469706 0.000000
0.083354 0.469706 0.000000
0.110704 0.469706 0.000000
0.139372 0.469706 0.000000
0.169249 0.469706 0.000000
0.200225 0.469706 0.000000
0.232189 0.469706 0.000000
0.265032 0.469706 0.000000
0.298644 0.469706 0.000000
0.332915 0.469706 0.000000
0.367736 0.469706 0.000000
0.402996 0.469706 0.000000
0.438585 0.469706 0.000000
0.474394 0.469706 0.000000
0.512571 0.470938 0.000000
0.550748 0.472169 0.000000
0.588809 0.473397 0.000000
0.626635 0.474617 0.000000
0.664112 0.475826 0.000000
0.701121 0.477020 0.000000
0.737546 0.478195 0.000000
0.773271 0.479348 0.000000
0.808179 0.480474 0.000000
0.842152 0.481570 0.000000
0.875074 0.482632 0.000000
0.906829 0.483656 0.000000
0.937299 0.484639 0.000000
0.966368 0.485577 0.000000
0.993919 0.486465 0.000000
1.000000 0.487301 0.000000
1.000000 0.488081 0.000000
0.012571 0.506857 0.000000
0.035307 0.506857 0.000000
0.059691 0.506857 0.000000
0.085612 0.506857 0.000000
0.112962 0.506857 0.000000
0.141630 0.506857 0.000000
0.171507 0.506857 0.000000
0.202482 0.506857 0.000000
0.234446 0.506857 0.000000
0.267289 0.506857 0.000000
0.300902 0.506857 0.000000
0.335173 0.506857 0.000000
0.369993 0.506857 0.000000
0.405253 0.506857 0.000000
0.440843 0.506857 0.000000
0.476652 0.506857 0.000000
0.512571 0.506857 0.000000
0.550748 0.508089 0.000000
0.588809 0.509316 0.000000
0.626635 0.510537 0.000000
0.664112 0.511746 0.000000
0.701121 0.512939 0.000000
0.737546 0.514114 0.000000
0.773271 0.515267 0.000000
0.808179 0.516393 0.000000
0.842152 0.517489 0.000000
0.875074 0.518551 0.000000
0.906829 0.519575 0.000000
0.937299 0.520558 0.000000
0.966368 0.521496 0.000000
0.993919 0.522384 0.000000
1.000000 0.523220 0.000000
1.000000 0.524000 0.000000
0.014829 0.544008 0.000000
0.037565 0.544008 0.000000
0.061948 0.544008 0.000000
0.087870 0.544008 0.000000
0.115220 0.544008 0.000000
0.143888 0.544008 0.000000
0.173765 0.544008 0.000000
0.204740 0.544008 0.000000
0.236704 0.544008 0.000000
0.269547 0.544008 0.000000
0.303159 0.544008 0.000000
0.337431 0.544008 0.000000
0.372251 0.544008 0.000000
0.407511 0.544008 0.000000
0.443101 0.544008 0.000000
0.478910 0.544008 0.000000
0.514829 0.544008 0.000000
0.550748 0.544008 0.000000
0.588809 0.545236 0.000000
0.626635 0.546456 0.000000
0.664112 0.547665 0.000000
0.701121 0.548859 0.000000
0.737546 0.550034 0.000000
0.773271 0.551186 0.000000
0.808179 0.552312 0.000000
0.842152 0.553408 0.000000
0.875074 0.554470 0.000000
0.906829 0.555494 0.000000
0.937299 0.556477 0.000000
0.966368 0.557415 0.000000
0.993919 0.558304 0.000000
1.000000 0.559140 0.000000
1.000000 0.559919 0.000000
0.017080 0.581045 0.000000
0.039816 0.581045 0.000000
0.064199 0.581045 0.000000
0.090121 0.581045 0.000000
0.117471 0.581045 0.000000
0.146139 0.581045 0.000000
0.176016 0.581045 0.000000
0.206991 0.581045 0.000000
0.238955 0.581045 0.000000
0.271798 0.581045 0.000000
0.305410 0.581045 0.000000
0.339681 0.581045 0.000000
0.374502 0.581045 0.000000
0.409762 0.581045 0.000000
0.445352 0.581045 0.000000
0.481161 0.581045 0.000000
0.517080 0.581045 0.000000
0.552999 0.581045 0.000000
0.588809 0.581045 0.000000
0.626635 0.582265 0.000000
0.664112 0.583474 0.000000
0.701121 0.584668 0.000000
0.737546 0.585843 0.000000
0.773271 0.586995 0.000000
0.808179 0.588121 0.000000
0.842152 0.589217 0.000000
0.875074 0.590279 0.000000
0.906829 0.591304 0.000000
0.937299 0.592287 0.000000
0.966368 0.593224 0.000000
0.993919 0.594113 0.000000
1.000000 0.594949 0.000000
1.000000 0.595729 0.000000
0.019317 0.617855 0.000000
0.042053 0.617855 0.000000
0.066436 0.617855 0.000000
0.092358 0.617855 0.000000
0.119708 0.617855 0.000000
0.148376 0.617855 0.000000
0.178253 0.617855 0.000000
0.209228 0.617855 0.000000
0.241192 0.617855 0.000000
0.274035 0.617855 0.000000
0.307647 0.617855 0.000000
0.341918 0.617855 0.000000
0.376739 0.617855 0.000000
0.411999 0.617855 0.000000
0.447589 0.617855 0.000000
0.483398 0.617855 0.000000
0.519317 0.617855 0.000000
0.555236 0.617855 0.000000
0.591046 0.617855 0.000000
0.626635 0.617855 0.000000
0.664112 0.619064 0.000000
0.701121 0.620257 0.000000
0.737546 0.621433 0.000000
0.773271 0.622585 0.000000
0.808179 0.623711 0.000000
0.842152 0.624807 0.000000
0.875074 0.625869 0.000000
0.906829 0.626893 0.000000
0.937299 0.627876 0.000000
0.966368 0.628814 0.000000
0.993919 0.629703 0.000000
1.000000 0.630539 0.000000
1.000000 0.631318 0.000000
0.021533 0.654324 0.000000
0.044269 0.654324 0.000000
0.068653 0.654324 0.000000
0.094574 0.654324 0.000000
0.121924 0.654324 0.000000
0.150592 0.654324 0.000000
0.180469 0.654324 0.000000
0.211444 0.654324 0.000000
0.243408 0.654324 0.000000
0.276251 0.654324 0.000000
0.309864 0.654324 0.000000
0.344135 0.654324 0.000000
0.378955 0.654324 0.000000
0.414215 0.654324 0.000000
0.449805 0.654324 0.000000
0.485614 0.654324 0.000000
0.521533 0.654324 0.000000
0.557453 0.654324 0.000000
0.593262 0.654324 0.000000
0.628852 0.654324 0.000000
0.664112 0.654324 0.000000
0.701121 0.655518 0.000000
0.737546 0.656693 0.000000
0.773271 0.657845 0.000000
0.808179 0.658971 0.000000
0.842152 0.660067 0.000000
0.875074 0.661129 0.000000
0.906829 0.662153 0.000000
0.937299 0.663136 0.000000
0.966368 0.664074 0.000000
0.993919 0.664963 0.000000
1.000000 0.665799 0.000000
1.000000 0.666578 0.000000
0.023722 0.690338 0.000000
0.046458 0.690338 0.000000
0.070841 0.690338 0.000000
0.096763 0.690338 0.000000
0.124113 0.690338 0.000000
0.152781 0.690338 0.000000
0.182658 0.690338 0.000000
0.213633 0.690338 0.000000
0.245597 0.690338 0.000000
0.278440 0.690338 0.000000
0.312052 0.690338 0.000000
0.346324 0.690338 0.000000
0.381144 0.690338 0.000000
0.416404 0.690338 0.000000
0.451994 0.690338 0.000000
0.487803 0.690338 0.000000
0.523722 0.690338 0.000000
0.559641 0.690338 0.000000
0.595451 0.690338 0.000000
0.631040 0.690338 0.000000
0.666300 0.690338 0.000000
0.701121 0.690338 0.000000
0.737546 0.691513 0.000000
0.773271 0.692665 0.000000
0.808179 0.693792 0.000000
0.842152 0.694887 0.000000
0.875074 0.695949 0.000000
0.906829 0.696974 0.000000
0.937299 0.697957 0.000000
0.966368 0.698894 0.000000
0.993919 0.699783 0.000000
1.000000 0.700619 0.000000
1.000000 0.701399 0.000000
0.025876 0.725784 0.000000
0.048612 0.725784 0.000000
0.072996 0.725784 0.000000
0.098917 0.725784 0.000000
0.126267 0.725784 0.000000
0.154935 0.725784 0.000000
0.184812 0.725784 0.000000
0.215787 0.725784 0.000000
0.247751 0.725784 0.000000
0.280594 0.725784 0.000000
0.314206 0.725784 0.000000
0.348478 0.725784 0.000000
0.383298 0.725784 0.000000
0.418558 0.725784 0.000000
0.454148 0.725784 0.000000
0.489957 0.725784 0.000000
0.525876 0.725784 0.000000
0.561796 0.725784 0.000000
0.597605 0.725784 0.000000
0.633195 0.725784 0.000000
0.668455 0.725784 0.000000
0.703275 0.725784 0.000000
0.737546 0.725784 0.000000
0.773271 0.726937 0.000000
0.808179 0.728063 0.000000
0.842152 0.729159 0.000000
0.875074 0.730221 0.000000
0.906829 0.731245 0.000000
0.937299 0.732228 0.000000
0.966368 0.733166 0.000000
0.993919 0.734054 0.000000
1.000000 0.734890 0.000000
1.000000 0.735670 0.000000
0.027989 0.760549 0.000000
0.050725 0.760549 0.000000
0.075108 0.760549 0.000000
0.101030 0.760549 0.000000
0.128380 0.760549 0.000000
0.157048 0.760549 0.000000
0.186925 0.760549 0.000000
0.217900 0.760549 0.000000
0.249864 0.760549 0.000000
0.282707 0.760549 0.000000
0.316319 0.760549 0.000000
0.350590 0.760549 0.000000
0.385411 0.760549 0.000000
0.420671 0.760549 0.000000
0.456261 0.760549 0.000000
0.492070 0.760549 0.000000
0.527989 0.760549 0.000000
0.563908 0.760549 0.000000
0.599718 0.760549 0.000000
0.635307 0.760549 0.000000
0.670567 0.760549 0.000000
0.705388 0.760549 0.000000
0.739659 0.760549 0.000000
0.773271 0.760549 0.000000
0.808179 0.761675 0.000000
0.842152 0.762771 0.000000
0.875074 0.763833 0.000000
0.906829 0.764857 0.000000
0.937299 0.765840 0.000000
0.966368 0.766778 0.000000
0.993919 0.767666 0.000000
1.000000 0.768502 0.000000
1.000000 0.769282 0.000000
0.030054 0.794518 0.000000
0.052789 0.794518 0.000000
0.077173 0.794518 0.000000
0.103094 0.794518 0.000000
0.130444 0.794518 0.000000
0.159112 0.794518 0.000000
0.188989 0.794518 0.000000
0.219964 0.794518 0.000000
0.251929 0.794518 0.000000
0.284772 0.794518 0.000000
0.318384 0.794518 0.000000
0.352655 0.794518 0.000000
0.387475 0.794518 0.000000
0.422735 0.794518 0.000000
0.458325 0.794518 0.000000
0.494134 0.794518 0.000000
0.530054 0.794518 0.000000
0.565973 0.794518 0.000000
0.601782 0.794518 0.000000
0.637372 0.794518 0.000000
0.672632 0.794518 0.000000
0.707452 0.794518 0.000000
0.741723 0.794518 0.000000
0.775336 0.794518 0.000000
0.808179 0.794518 0.000000
0.842152 0.795614 0.000000
0.875074 0.796676 0.000000
0.906829 0.797700 0.000000
0.937299 0.798683 0.000000
0.966368 0.799621 0.000000
0.993919 0.800509 0.000000
1.000000 0.801345 0.000000
1.000000 0.802125 0.000000
0.032063 0.827578 0.000000
0.054798 0.827578 0.000000
0.079182 0.827578 0.000000
0.105104 0.827578 0.000000
0.132453 0.827578 0.000000
0.161122 0.827578 0.000000
0.190998 0.827578 0.000000
0.221974 0.827578 0.000000
0.253938 0.827578 0.000000
0.286781 0.827578 0.000000
0.320393 0.827578 0.000000
0.354664 0.827578 0.000000
0.389485 0.827578 0.000000
0.424745 0.827578 0.000000
0.460334 0.827578 0.000000
0.496144 0.827578 0.000000
0.532063 0.827578 0.000000
0.567982 0.827578 0.000000
0.603791 0.827578 0.000000
0.639381 0.827578 0.000000
0.674641 0.827578 0.000000
0.709461 0.827578 0.000000
0.743733 0.827578 0.000000
0.777345 0.827578 0.000000
0.810188 0.827578 0.000000
0.842152 0.827578 0.000000
0.875074 0.828640 0.000000
0.906829 0.829664 0.000000
0.937299 0.830647 0.000000
0.966368 0.831585 0.000000
0.993919 0.832474 0.000000
1.000000 0.833310 0.000000
1.000000 0.834089 0.000000
0.034010 0.859615 0.000000
0.056745 0.859615 0.000000
0.081129 0.859615 0.000000
0.107051 0.859615 0.000000
0.134400 0.859615 0.000000
0.163069 0.859615 0.000000
0.192945 0.859615 0.000000
0.223921 0.859615 0.000000
0.255885 0.859615 0.000000
0.288728 0.859615 0.000000
0.322340 0.859615 0.000000
0.356611 0.859615 0.000000
0.391432 0.859615 0.000000
0.426692 0.859615 0.000000
0.462281 0.859615 0.000000
0.498091 0.859615 0.000000
0.534010 0.859615 0.000000
0.569929 0.859615 0.000000
0.605738 0.859615 0.000000
0.641328 0.859615 0.000000
0.676588 0.859615 0.000000
0.711408 0.859615 0.000000
0.745680 0.859615 0.000000
0.779292 0.859615 0.000000
0.812135 0.859615 0.000000
0.844099 0.859615 0.000000
0.875074 0.859615 0.000000
0.906829 0.860640 0.000000
0.937299 0.861622 0.000000
